X: 7
T: The Swallow's Tail
R: reel
M: 4/4
L: 1/8
K: Ador
|:eA3 eA3|Bdef gedB|G2~G2 dG~G2|B/c/def g2fg|| eAAA eAAA|B/c/def g2fg|af3 ge3 BABG A3 (gf):||:ea3 ea3| edef gedB|G2~G2 DG3|B/c/def g2fg|| ea3 aged|b/c/def g2fg|af3 ge3 BABG A3 (Bd):||


Tune 105	Setting 12668

